tools/download-figma-icons/icons/action/facebook.svg

<svg width="24" height="24" viewBox="0 0 24 24" fill="none" xmlns="http://www.w3.org/2000/svg">
<path fill-rule="evenodd" clip-rule="evenodd" d="M16.8546 2.2539L14.3358 2.25C11.5068 2.25 9.67765 4.1772 9.67765 7.1595V9.42345H7.14603C6.92753 9.42345 6.75 9.60581 6.75 9.83025V13.1102C6.75 13.3347 6.92752 13.517 7.14603 13.517H9.67848V21.7933C9.67848 22.0177 9.856 22.2001 10.0745 22.2001H13.3786C13.5971 22.2001 13.7746 22.0177 13.7746 21.7933L13.7738 13.517H16.7349C16.9534 13.517 17.1309 13.3347 17.1309 13.1102L17.1325 9.83025C17.1325 9.72271 17.0907 9.61906 17.0164 9.54269C16.942 9.46631 16.8411 9.42345 16.7364 9.42345H13.7738V7.5048C13.7738 6.58208 13.9877 6.11452 15.1576 6.11452L16.854 6.11375C17.0725 6.11375 17.25 5.93139 17.25 5.70695V2.6606C17.25 2.43694 17.0732 2.25457 16.8547 2.2538L16.8546 2.25391L16.8546 2.2539Z" fill="black"/>
</svg>

<svg width="24" height="24" viewBox="0 0 24 24" fill="none" xmlns="http://www.w3.org/2000/svg"><path fill-rule="evenodd" clip-rule="evenodd" d="m16.855 2.254-2.52-.004c-2.828 0-4.657 1.927-4.657 4.91v2.263H7.146a.402.402 0 0 0-.396.407v3.28c0 .225.178.407.396.407h2.532v8.276c0 .225.178.407.396.407h3.305a.402.402 0 0 0 .396-.407l-.001-8.276h2.96a.402.402 0 0 0 .397-.407l.002-3.28a.413.413 0 0 0-.117-.287.391.391 0 0 0-.28-.12h-2.962V7.505c0-.923.214-1.39 1.384-1.39l1.696-.001a.402.402 0 0 0 .396-.407V2.661a.402.402 0 0 0-.395-.407Z" fill="currentColor"/></svg>
